X:170
T:score25
L:1/8
Q:1/4=96
M:2/4
I:linebreak $
K:Dmin
 (D2 A,2 |[M:4/4] D7/2 E/ F>E F>D | A2) z (F G2 A2 |$ BAGF E2 A2 | GFEF) (D2 A,2 | %5
 D7/2 E/ F>E F>D | A2) z (F G2 A2 |$ BAGF F2 E2 |[M:2/4] D2) z2 |] %9
